X: 4
T: The Merry Blacksmith
R: reel
M: 4/4
L: 1/8
K: Dmaj
A|d2dA BAFA|AFdA BAFA|ABde f2ed|Beed Beef|
d3A BAFA|AFdA BAFA|ABde f2ec|dBAF D3||
f|ac'ag fafe|d3A BAFA|ABde f2ed|Beed Beef|
ac'ag fafe|d3A BAFA|ABde f2ec|dBAF D3||


Tune 72	Setting 12541

